assets/sonr-icons/heart.svg

<svg xmlns="http://www.w3.org/2000/svg" width="24" height="24" fill="none"><path fill="currentColor" d="m12 7.212 1.333-1.194A4 4 0 0 1 19.999 9c0 2.999-1.34 5.212-3.032 6.85-1.722 1.666-3.748 2.668-4.853 3.129a.28.28 0 0 1-.229 0c-1.106-.461-3.131-1.462-4.853-3.129C5.339 14.212 4 11.999 4 9a4 4 0 0 1 6.666-2.982zm0-2.684A6 6 0 0 0 2 9c0 7.351 6.671 10.806 9.116 11.825a2.28 2.28 0 0 0 1.768 0C15.328 19.806 22 16.35 22 9a6 6 0 0 0-10-4.472"/></svg>

<svg xmlns="http://www.w3.org/2000/svg" width="24" height="24" fill="none" viewBox="0 0 24 24"><path fill="#000" d="M12 7.212L13.333 6.018C14.042 5.384 14.973 5 15.999 5C18.208 5 19.999 6.791 19.999 9C19.999 11.999 18.659 14.212 16.967 15.85C15.245 17.516 13.219 18.518 12.114 18.979C12.037 19.011 11.963 19.011 11.885 18.979C10.779 18.518 8.754 17.517 7.032 15.85C5.339 14.212 4 11.999 4 9C4 6.79 5.791 5 8 5C9.026 5 9.957 5.383 10.666 6.018L12 7.212ZM12 4.528C10.939 3.578 9.537 3 8 3C4.687 3 2 5.686 2 9C2 16.351 8.671 19.806 11.116 20.825C11.685 21.063 12.314 21.063 12.884 20.825C15.328 19.806 22 16.35 22 9C22 5.686 19.314 3 16 3C14.463 3 13.061 3.577 12 4.528Z"/></svg>
